icons/phone-off.svg

<svg width="24" height="24" viewBox="0 0 24 24" fill="none" xmlns="http://www.w3.org/2000/svg">
<g clip-path="url(#clip0)">
<path fill-rule="evenodd" clip-rule="evenodd" d="M23.7071 0.292893C24.0976 0.683417 24.0976 1.31658 23.7071 1.70711L12.4811 12.9331C12.8816 13.2646 13.307 13.5673 13.7544 13.8382L14.8484 12.0149C15.1009 11.594 15.6216 11.4186 16.0773 11.6009L21.3714 13.7186C21.751 13.8704 22 14.2382 22 14.6471V18.8824C22 19.7092 21.6715 20.5022 21.0869 21.0869C20.5022 21.6715 19.7092 22 18.8824 22C18.8621 22 18.8419 21.9994 18.8217 21.9982C14.7814 21.7526 10.9532 20.1491 7.95047 17.4637L1.70711 23.7071C1.31658 24.0976 0.683417 24.0976 0.292893 23.7071C-0.0976311 23.3166 -0.0976311 22.6834 0.292893 22.2929L22.2929 0.292893C22.6834 -0.0976311 23.3166 -0.0976311 23.7071 0.292893ZM9.36716 16.0471C12.0138 18.3808 15.3686 19.7769 18.9084 19.9997C19.1954 19.993 19.4692 19.8761 19.6726 19.6726C19.8822 19.4631 20 19.1788 20 18.8824V15.3241L16.1252 13.7742L14.9751 15.691C14.7074 16.1372 14.1421 16.3035 13.6753 16.0733C12.7302 15.6072 11.8533 15.028 11.0616 14.3526L9.36716 16.0471ZM5.11765 4C4.82123 4 4.53695 4.11775 4.32735 4.32735C4.12389 4.53081 4.00697 4.80465 4.0003 5.09164C4.17343 7.84168 5.05466 10.4801 6.53362 12.7615C6.83404 13.225 6.70189 13.8442 6.23846 14.1446C5.77503 14.445 5.15581 14.3129 4.85539 13.8494C3.18395 11.271 2.19079 8.28747 2.00184 5.17831C2.00061 5.15811 2 5.13788 2 5.11765C2 4.2908 2.32847 3.49781 2.91314 2.91314C3.49781 2.32847 4.2908 2 5.11765 2H9.35294C9.76185 2 10.1296 2.24895 10.2814 2.62861L12.1806 7.37651C12.3291 7.74793 12.2421 8.17214 11.9592 8.45501L10.2659 10.1483C10.2081 10.2061 10.1434 10.2566 10.0733 10.2987L9.33803 10.7398C8.86444 11.024 8.25019 10.8704 7.96604 10.3968C7.68189 9.92327 7.83545 9.30901 8.30903 9.02486L8.93877 8.64702L10.0787 7.50706L8.67591 4H5.11765Z" fill="black"/>
</g>
<defs>
<clipPath id="clip0">
<rect width="24" height="24" fill="white"/>
</clipPath>
</defs>
</svg>

<svg
  width="24"
  height="24"
  viewBox="0 0 24 24"
  xmlns="http://www.w3.org/2000/svg"
>
  <g clip-path="url(#a)">
    <path
      fill-rule="evenodd"
      clip-rule="evenodd"
      d="M23.707.293a1 1 0 0 1 0 1.414L12.481 12.933c.4.332.826.634 1.273.905l1.094-1.823a1 1 0 0 1 1.23-.414l5.293 2.118a1 1 0 0 1 .629.928v4.235a3.118 3.118 0 0 1-3.178 3.116A17.941 17.941 0 0 1 7.95 17.464l-6.243 6.243a1 1 0 0 1-1.414-1.414l22-22a1 1 0 0 1 1.414 0zM9.367 16.047A15.941 15.941 0 0 0 18.908 20 1.117 1.117 0 0 0 20 18.882v-3.558l-3.875-1.55-1.15 1.917a1 1 0 0 1-1.3.382 12.643 12.643 0 0 1-2.613-1.72l-1.695 1.694zM5.117 4A1.118 1.118 0 0 0 4 5.092a15.94 15.94 0 0 0 2.534 7.67 1 1 0 1 1-1.679 1.087A17.941 17.941 0 0 1 2 5.118 3.118 3.118 0 0 1 5.118 2h4.235a1 1 0 0 1 .928.629l1.9 4.748a1 1 0 0 1-.222 1.078l-1.693 1.693a1.002 1.002 0 0 1-.193.15l-.735.442a1 1 0 1 1-1.029-1.715l.63-.378 1.14-1.14L8.676 4H5.118z"
    />
  </g>
  <defs>
    <clipPath id="a">
      <rect width="24" height="24" />
    </clipPath>
  </defs>
</svg>
